svg/retailers/clockhouse.svg

<?xml version="1.0" encoding="utf-8"?>
<!-- Generator: Adobe Illustrator 16.0.0, SVG Export Plug-In . SVG Version: 6.00 Build 0)  -->
<!DOCTYPE svg PUBLIC "-//W3C//DTD SVG 1.1//EN" "http://www.w3.org/Graphics/SVG/1.1/DTD/svg11.dtd">
<svg version="1.1" id="Layer_1" xmlns:sketch="http://www.bohemiancoding.com/sketch/ns"
	 xmlns="http://www.w3.org/2000/svg" xmlns:xlink="http://www.w3.org/1999/xlink" x="0px" y="0px" width="137px" height="16px"
	 viewBox="0 0 137 16" enable-background="new 0 0 137 16" xml:space="preserve">
<title>clockhouse</title>
<g id="Page_1">
	<g id="Layer_1_1_">
		<path d="M0,11.057c0,2.639,1.169,4.012,3.42,4.012c2.171,0,3.44-1.392,3.44-3.95V9.602H4.567v1.965
			c0,1.004-0.391,1.518-1.147,1.518c-0.759,0-1.146-0.514-1.146-1.518V3.501c0-1.003,0.387-1.495,1.146-1.495
			c0.757,0,1.147,0.491,1.147,1.495v1.597H6.86V3.705C6.86,1.37,5.529,0,3.502,0C1.292,0,0,1.391,0,3.645V11.057L0,11.057z"/>
		<path d="M130.288,14.762h5.815v-2.171h-3.584v-4.32h2.58V6.183h-2.58V2.395h3.584V0.307h-5.815V14.762z"/>
		<path d="M115.438,11.096c0.102,2.54,1.516,3.995,3.687,3.995c1.985,0,3.46-1.476,3.46-3.604c0-2.006-0.963-3.089-2.498-4.584
			c-1.271-1.229-2.232-2.109-2.232-3.419c0-0.819,0.492-1.331,1.188-1.331c0.819,0,1.146,0.551,1.229,1.802l2.17-0.307
			c-0.164-2.253-1.494-3.583-3.338-3.583c-1.886,0-3.461,1.535-3.461,3.623c0,1.905,1.146,3.093,2.765,4.71
			c1.188,1.186,2.007,1.923,2.007,3.13c0,0.842-0.553,1.394-1.372,1.394c-0.94,0-1.392-0.696-1.474-2.147L115.438,11.096
			L115.438,11.096z"/>
		<path d="M100.966,0.307v10.75c0,2.642,1.229,4.014,3.44,4.014c2.172,0,3.42-1.393,3.42-3.951V0.307h-2.271v11.2
			c0,0.879-0.451,1.37-1.125,1.37c-0.678,0-1.188-0.491-1.188-1.37v-11.2H100.966L100.966,0.307L100.966,0.307z"/>
		<path d="M71.273,0.307v14.455h2.211V8.291h2.232v6.471h2.232V0.307h-2.232v5.896h-2.232V0.307H71.273z"/>
		<path d="M56.741,14.762h2.231V9.131l0.818-1.638l1.884,7.271h2.314l-2.764-9.521l2.478-4.935H61.49l-2.211,5.16
			c-0.083,0.183-0.184,0.51-0.308,0.941V0.307H56.74L56.741,14.762L56.741,14.762L56.741,14.762z"/>
		<path d="M41.839,11.057c0,2.639,1.168,4.012,3.419,4.012c2.171,0,3.441-1.392,3.441-3.95V9.602h-2.293v1.965
			c0,1.004-0.39,1.518-1.148,1.518c-0.757,0-1.146-0.514-1.146-1.518V3.501c0-1.003,0.39-1.495,1.146-1.495
			c0.759,0,1.148,0.491,1.148,1.495v1.597H48.7V3.705C48.7,1.37,47.369,0,45.341,0c-2.212,0-3.502,1.391-3.502,3.645V11.057
			L41.839,11.057z"/>
		<path d="M14.814,14.762h5.672v-2.088h-3.46V0.307h-2.212V14.762z"/>
		<path d="M30.589,0c-2.21,0-3.502,1.391-3.502,3.645v7.412c0,2.642,1.208,4.014,3.42,4.014c2.172,0,3.44-1.393,3.44-3.951V3.705
			C33.948,1.37,32.617,0,30.589,0z M31.655,11.566c0,1.004-0.39,1.517-1.147,1.517c-0.757,0-1.146-0.513-1.146-1.517V3.501
			c0-1.003,0.388-1.495,1.146-1.495c0.758,0,1.147,0.491,1.147,1.495V11.566z"/>
		<path d="M89.613,0c-2.211,0-3.502,1.391-3.502,3.645v7.412c0,2.642,1.209,4.014,3.422,4.014c2.169,0,3.439-1.393,3.439-3.951
			V3.705C92.973,1.37,91.641,0,89.613,0z M90.68,11.566c0,1.004-0.392,1.517-1.146,1.517c-0.758,0-1.148-0.513-1.148-1.517V3.501
			c0-1.003,0.393-1.495,1.148-1.495s1.146,0.491,1.146,1.495V11.566z"/>
	</g>
</g>
</svg>

<?xml version="1.0" encoding="UTF-8" standalone="no"?>
<svg width="137px" height="16px" viewBox="0 0 137 16" version="1.1" xmlns="http://www.w3.org/2000/svg" xmlns:xlink="http://www.w3.org/1999/xlink" xmlns:sketch="http://www.bohemiancoding.com/sketch/ns">
    <title>clockhouse</title>
    <g id="Page 1" fill="#D8D8D8" fill-rule="evenodd">
        <g id="Layer_1" fill="#000000">
            <path d="M0,11.057 C0,13.696 1.169,15.069 3.42,15.069 C5.591,15.069 6.86,13.677 6.86,11.118 L6.86,9.602 L4.567,9.602 L4.567,11.567 C4.567,12.571 4.176,13.084 3.42,13.084 C2.661,13.084 2.274,12.571 2.274,11.567 L2.274,3.501 C2.274,2.498 2.661,2.006 3.42,2.006 C4.177,2.006 4.567,2.497 4.567,3.501 L4.567,5.098 L6.86,5.098 L6.86,3.705 C6.86,1.37 5.529,0 3.502,0 C1.292,0 0,1.391 0,3.645 L0,11.057 L0,11.057 Z M0,11.057" class="black"/>
            <path d="M130.288,14.762 L136.103,14.762 L136.103,12.591 L132.519,12.591 L132.519,8.271 L135.1,8.271 L135.1,6.183 L132.519,6.183 L132.519,2.395 L136.103,2.395 L136.103,0.307 L130.288,0.307 L130.288,14.762 Z M130.288,14.762" class="black"/>
            <path d="M115.437,11.096 C115.539,13.636 116.953,15.091 119.124,15.091 C121.11,15.091 122.584,13.615 122.584,11.487 C122.584,9.481 121.621,8.397 120.086,6.902 C118.815,5.673 117.854,4.793 117.854,3.483 C117.854,2.664 118.346,2.152 119.042,2.152 C119.861,2.152 120.188,2.703 120.271,3.954 L122.441,3.647 C122.278,1.394 120.947,0.064 119.103,0.064 C117.218,0.064 115.643,1.599 115.643,3.687 C115.643,5.592 116.789,6.78 118.407,8.397 C119.595,9.583 120.414,10.321 120.414,11.528 C120.414,12.369 119.861,12.921 119.042,12.921 C118.102,12.921 117.65,12.224 117.568,10.773 L115.437,11.096 L115.437,11.096 Z M115.437,11.096" class="black"/>
            <path d="M100.966,0.307 L100.966,11.057 C100.966,13.698 102.195,15.071 104.406,15.071 C106.578,15.071 107.826,13.678 107.826,11.119 L107.826,0.307 L105.555,0.307 L105.555,11.507 C105.555,12.386 105.103,12.877 104.429,12.877 C103.752,12.877 103.241,12.386 103.241,11.507 L103.241,0.307 L100.966,0.307 L100.966,0.307 L100.966,0.307 Z M100.966,0.307" class="black"/>
            <path d="M71.273,0.307 L71.273,14.762 L73.485,14.762 L73.485,8.291 L75.717,8.291 L75.717,14.762 L77.949,14.762 L77.949,0.307 L75.717,0.307 L75.717,6.203 L73.485,6.203 L73.485,0.307 L71.273,0.307 Z M71.273,0.307" class="black"/>
            <path d="M56.741,14.762 L58.972,14.762 L58.972,9.131 L59.79,7.493 L61.674,14.764 L63.988,14.764 L61.224,5.243 L63.702,0.308 L61.49,0.308 L59.279,5.468 C59.196,5.651 59.095,5.978 58.971,6.409 L58.971,0.307 L56.74,0.307 L56.74,14.762 L56.741,14.762 L56.741,14.762 Z M56.741,14.762" class="black"/>
            <path d="M41.839,11.057 C41.839,13.696 43.007,15.069 45.258,15.069 C47.429,15.069 48.699,13.677 48.699,11.118 L48.699,9.602 L46.406,9.602 L46.406,11.567 C46.406,12.571 46.016,13.084 45.258,13.084 C44.501,13.084 44.112,12.571 44.112,11.567 L44.112,3.501 C44.112,2.498 44.502,2.006 45.258,2.006 C46.017,2.006 46.406,2.497 46.406,3.501 L46.406,5.098 L48.7,5.098 L48.7,3.705 C48.7,1.37 47.369,0 45.341,0 C43.129,0 41.839,1.391 41.839,3.645 L41.839,11.057 L41.839,11.057 Z M41.839,11.057" class="black"/>
            <path d="M14.814,14.762 L20.486,14.762 L20.486,12.674 L17.026,12.674 L17.026,0.307 L14.814,0.307 L14.814,14.762 Z M14.814,14.762" class="black"/>
            <path d="M27.087,3.645 L27.087,11.057 C27.087,13.698 28.295,15.071 30.507,15.071 C32.679,15.071 33.947,13.678 33.947,11.119 L33.947,3.705 C33.948,1.37 32.617,0 30.589,0 C28.379,0 27.087,1.391 27.087,3.645 L27.087,3.645 L27.087,3.645 Z M27.087,3.645" class="black"/>
            <path d="M31.655,11.566 C31.655,12.57 31.265,13.083 30.508,13.083 C29.751,13.083 29.362,12.57 29.362,11.566 L29.362,3.501 C29.362,2.498 29.75,2.006 30.508,2.006 C31.266,2.006 31.655,2.497 31.655,3.501 L31.655,11.566 L31.655,11.566 Z M31.655,11.566" class="white" fill="#FFFFFF"/>
            <path d="M86.112,3.645 L86.112,11.057 C86.112,13.698 87.321,15.071 89.533,15.071 C91.702,15.071 92.972,13.678 92.972,11.119 L92.972,3.705 C92.972,1.37 91.641,0 89.614,0 C87.402,0 86.112,1.391 86.112,3.645 L86.112,3.645 L86.112,3.645 Z M86.112,3.645" class="black"/>
            <path d="M90.679,11.566 C90.679,12.57 90.288,13.083 89.533,13.083 C88.775,13.083 88.385,12.57 88.385,11.566 L88.385,3.501 C88.385,2.498 88.777,2.006 89.533,2.006 C90.289,2.006 90.679,2.497 90.679,3.501 L90.679,11.566 L90.679,11.566 Z M90.679,11.566" class="white" fill="#FFFFFF"/>
        </g>
    </g>
</svg>
